src/topics/icons/recast.ai.svg

<svg height="276" preserveAspectRatio="xMidYMid" viewBox="0 0 256 276" width="256" xmlns="http://www.w3.org/2000/svg" xmlns:xlink="http://www.w3.org/1999/xlink"><linearGradient id="a"><stop offset="0" stop-color="#ffd54f"/><stop offset=".2164" stop-color="#ffd03d"/><stop offset=".7309" stop-color="#ffc516"/><stop offset="1" stop-color="#ffc107"/></linearGradient><linearGradient id="b" x1="47.271163%" x2="61.47134%" xlink:href="#a" y1="-17.693113%" y2="99.941377%"/><linearGradient id="c" x1="0%" x2="99.999836%" xlink:href="#a" y1="49.999458%" y2="49.999458%"/><linearGradient id="d" x1="49.999262%" x2="49.999262%" y1="-.020192%" y2="99.980536%"><stop offset="0" stop-color="#ffc107"/><stop offset=".4213" stop-color="#ffbe06"/><stop offset=".6937" stop-color="#ffb605"/><stop offset=".9233" stop-color="#ffa701"/><stop offset="1" stop-color="#ffa000"/></linearGradient><path d="m128 257.039205c3.347557 0 6.665749-.121642 9.941992-.3859 1.967424-.14681 7.21109-.746634 9.157539-.973141 3.288828-.419457 7.471177 19.957776 10.68869 19.303422 3.423066-.696299 2.588274-21.639799 5.906467-22.608745 53.321797-15.452805 92.305312-59.680377 92.305312-122.598964h-256c0 58.724014 36.735031 104.251904 87.6657163 121.147642 2.9406482.97314 2.7896306 23.44766 5.8267623 24.206877 3.1294203.78858 9.4511844-20.414984 12.6728934-19.857106 3.876119.671132 7.819356 1.124146 11.808737 1.434544 3.309803.24748 6.653165.331371 10.025891.331371z" fill="url(#b)"/><ellipse cx="128" cy="128.781763" fill="#ffe082" rx="128" ry="24.483719"/><path d="m255.995805 129.775877c0-67.1131591-51.966834-123.42109973-117.974109-128.5426727-3.309803-.24747977-6.64897-1.2332043-10.021696-1.2332043-3.343362 0-6.657359 1.02347568-9.933602 1.27095545-66.0534199 5.0712381-118.066398 61.39176245-118.066398 128.50492155h.1006784c-.0377544 4.194573-.1006784.385901-.1006784.650159 0 13.531691 57.3111788 24.416606 128 24.416606 70.697211 0 128-10.855553 128-24.378855 0-.260063-.058729 3.506663-.100678-.68791z" fill="url(#c)" opacity=".2"/><path d="m183.785192 243.7508c-16.396584 7.252416-34.542304 13.984704-55.800397 13.288405-31.2118139-1.015086-50.058028-10.7423-61.173645-16.107158-5.2432155-2.525133 26.4929196-14.983013 64.676113-14.983013 26.505503-.008389 63.149288 13.011564 52.297929 17.801766z" fill="url(#d)" opacity=".5"/><g fill="#ff8f00"><path d="m109.058884 179.137606c0-6.367361-4.26588-11.501518-9.5426526-11.501518-5.2809667 0-9.555236 5.14674-9.555236 11.501518 0 1.107367-.0083892 5.251604-.0083892 6.358972 0 6.350582 4.2784639 11.493128 9.5552361 11.493128 5.2767717 0 9.5510417-5.155129 9.5510417-11.493128 0-1.107368 0-5.251605 0-6.358972z"/><path d="m159.393753 179.137606c0-6.367361-4.517554-11.501518-9.802716-11.501518-5.276772 0-9.681073 5.14674-9.681073 11.501518 0 1.107367-.075502 5.251604-.075502 6.358972 0 6.350582 4.500776 11.493128 9.777548 11.493128s9.781743-5.14674 9.781743-11.493128z"/></g></svg>

<?xml version="1.0" encoding="UTF-8"?>
<svg width="256px" height="276px" viewBox="0 0 256 276" version="1.1" xmlns="http://www.w3.org/2000/svg" xmlns:xlink="http://www.w3.org/1999/xlink" preserveAspectRatio="xMidYMid">
    <defs>
        <linearGradient x1="47.2711631%" y1="-17.6931132%" x2="61.4713401%" y2="99.9413769%" id="linearGradient-1">
            <stop stop-color="#FFD54F" offset="0%"></stop>
            <stop stop-color="#FFD03D" offset="21.64%"></stop>
            <stop stop-color="#FFC516" offset="73.09%"></stop>
            <stop stop-color="#FFC107" offset="100%"></stop>
        </linearGradient>
        <linearGradient x1="0%" y1="49.9994582%" x2="99.9998361%" y2="49.9994582%" id="linearGradient-2">
            <stop stop-color="#FFD54F" offset="0%"></stop>
            <stop stop-color="#FFD03D" offset="21.64%"></stop>
            <stop stop-color="#FFC516" offset="73.09%"></stop>
            <stop stop-color="#FFC107" offset="100%"></stop>
        </linearGradient>
        <linearGradient x1="49.9992616%" y1="-0.0201921479%" x2="49.9992616%" y2="99.9805355%" id="linearGradient-3">
            <stop stop-color="#FFC107" offset="0%"></stop>
            <stop stop-color="#FFBE06" offset="42.13%"></stop>
            <stop stop-color="#FFB605" offset="69.37%"></stop>
            <stop stop-color="#FFA701" offset="92.33%"></stop>
            <stop stop-color="#FFA000" offset="100%"></stop>
        </linearGradient>
    </defs>
	<g>
		<path d="M128,257.039205 C131.347557,257.039205 134.665749,256.917563 137.941992,256.653305 C139.909416,256.506495 145.153082,255.906671 147.099531,255.680164 C150.388359,255.260707 154.570708,275.63794 157.788221,274.983586 C161.211287,274.287287 160.376495,253.343787 163.694688,252.374841 C217.016485,236.922036 256,192.694464 256,129.775877 L0,129.775877 C0,188.499891 36.735031,234.027781 87.6657163,250.923519 C90.6063645,251.896659 90.4553469,274.371179 93.4924786,275.130396 C96.6218989,275.918976 102.943663,254.715412 106.165372,255.27329 C110.041491,255.944422 113.984728,256.397436 117.974109,256.707834 C121.283912,256.955314 124.627274,257.039205 128,257.039205 Z" fill="url(#linearGradient-1)"></path>
		<ellipse fill="#FFE082" cx="128" cy="128.781763" rx="128" ry="24.4837194"></ellipse>
		<path d="M255.995805,129.775877 C255.995805,62.6627179 204.028971,6.35477727 138.021696,1.2332043 C134.711893,0.985724526 131.372726,0 128,0 C124.656638,0 121.342641,1.02347568 118.066398,1.27095545 C52.0129781,6.34219355 0,62.6627179 0,129.775877 L0.100678399,129.775877 C0.0629239996,133.97045 0,130.161778 0,130.426036 C0,143.957727 57.3111788,154.842642 128,154.842642 C198.697211,154.842642 256,143.987089 256,130.463787 C256,130.203724 255.941271,133.97045 255.899322,129.775877 L255.995805,129.775877 L255.995805,129.775877 Z" fill="url(#linearGradient-2)" opacity="0.2"></path>
		<path d="M183.785192,243.7508 C167.388608,251.003216 149.242888,257.735504 127.984795,257.039205 C96.7729811,256.024119 77.926767,246.296905 66.81115,240.932047 C61.5679345,238.406914 93.3040696,225.949034 131.487263,225.949034 C157.992766,225.940645 194.636551,238.960598 183.785192,243.7508 Z" fill="url(#linearGradient-3)" opacity="0.5"></path>
		<path d="M109.058884,179.137606 C109.058884,172.770245 104.793004,167.636088 99.5162314,167.636088 C94.2352647,167.636088 89.9609954,172.782828 89.9609954,179.137606 C89.9609954,180.244973 89.9526062,184.38921 89.9526062,185.496578 C89.9526062,191.84716 94.2310701,196.989706 99.5078423,196.989706 C104.784614,196.989706 109.058884,191.834577 109.058884,185.496578 C109.058884,184.38921 109.058884,180.244973 109.058884,179.137606 Z" fill="#FF8F00"></path>
		<path d="M159.393753,179.137606 C159.393753,172.770245 154.876199,167.636088 149.591037,167.636088 C144.314265,167.636088 139.909964,172.782828 139.909964,179.137606 C139.909964,180.244973 139.834462,184.38921 139.834462,185.496578 C139.834462,191.84716 144.335238,196.989706 149.61201,196.989706 C154.888782,196.989706 159.393753,191.842966 159.393753,185.496578 L159.393753,179.137606 Z" fill="#FF8F00"></path>
	</g>
</svg>
